X: 19
T:Po Kare Kare Ana
M:12/8
L:1/8
Q:100
K:D
A3 "(A)"f2f e2e|"D"d6f6-|"(D7)"f3A3d2dc2c|"G"B6 e6-|"(Em)"e3B2Be2ed2d|!
"A"c6 e6-|e3A2AB2Bc2c|"D"d6-"(G)"d6-|"(D)"d3d3"(D7)"e3f3|"G"g6-g6-|g3B3d
3g3|!
"D"f6-f6-|f3d3d2ef3|"A"e6-e6-|e3c2cB3A3|"D"d6-"(G)"d6-|"(D7)"d3:||
